X:857
T:Livans polska
M:3/4
C:Robert Boström
R:Polska
L:1/8
Q:1/4=110
K:Fmaj
|:"Fmaj7"(3A2e2a2 (3f-fe|"Bbmaj7"(3ed-d d4|"Gm7"(3c-cd (3cB-B (3A-AG|
"C7"(3A-AB (3AG-G (3E-EG|"Fmaj7"(3A2e2a2 (3f-fe|"Bbmaj7"(3ed-d d4|
"Gm7"(3c-cd (3cB-B (3A-AG|"C7"(3A-AB (3AG-G (3E-EG|"F"F2 F4:|
|:"F"(3zzC (3FG-G (3A-AB|"Am7"(3A-AG (3FE-E (3D-DE|"Bb"(3FD-D D2- (3D-DD|
"C7"(3C-CD C/2D/2C/2B,/2 (3A,-A,G,|"F"(3zzC (3FG-G (3A-AB|"Am7"(3c-cB (3AG-G (3F-FE|
"Bbmaj7"(3ED-D D2- (3D-DD|1"C7"(3C-CD C/2D/2C/2B,/2 (3A,-A,G,:|2"C7"(3C-CD (3EF-F (3G-GB ||

(:musicend:)

[[!Ackord]] [[!andrastämma]]
(:music:)
